icons/alert-line.svg

<svg xmlns="http://www.w3.org/2000/svg" width="24" height="24" fill="none"><g clip-path="url(#a)"><g><path fill="#121212" d="M12.8656 2.99996L22.3916 19.5C22.4794 19.652 22.5256 19.8244 22.5256 20C22.5256 20.1755 22.4794 20.3479 22.3916 20.4999C22.3038 20.652 22.1776 20.7782 22.0256 20.866C21.8736 20.9537 21.7011 21 21.5256 21H2.47361C2.29807 21 2.12563 20.9537 1.97362 20.866C1.8216 20.7782 1.69537 20.652 1.6076 20.4999C1.51984 20.3479 1.47363 20.1755 1.47363 20C1.47363 19.8244 1.51984 19.652 1.60761 19.5L11.1336 2.99996C11.2214 2.84795 11.3476 2.72172 11.4996 2.63396C11.6516 2.5462 11.8241 2.5 11.9996 2.5C12.1751 2.5 12.3476 2.5462 12.4996 2.63396C12.6516 2.72172 12.7778 2.84795 12.8656 2.99996ZM4.20561 19H19.7936L11.9996 5.49996L4.20561 19ZM10.9996 16H12.9996V18H10.9996V16ZM10.9996 8.99996H12.9996V14H10.9996V8.99996Z"/></g></g><defs><clipPath id="a"><rect width="24" height="24" fill="white"/></clipPath></defs></svg>

<svg width="24" height="24" fill="none" xmlns="http://www.w3.org/2000/svg"><g clip-path="url(#a)"><path d="m12.866 3 9.526 16.5a1 1 0 0 1-.866 1.5H2.474a1 1 0 0 1-.866-1.5L11.134 3a1 1 0 0 1 1.732 0Zm-8.66 16h15.588L12 5.5 4.206 19ZM11 16h2v2h-2v-2Zm0-7h2v5h-2V9Z" /></g><defs><clipPath id="a"><path fill="#fff" d="M0 0h24v24H0z"/></clipPath></defs></svg>
